; HEADER_BLOCK_START
; generated by Creality_Print V6.2.2.3203 on 2025-09-27 at 22:57:37
; total layer number: 80
; filament_density: 1.24,1.24,1.24,1.24,1.24,1.24,1.24,1.24,1.24,1.24,1.24,1.24,1.24,1.25,1.27,1.24
; filament_diameter: 1.75,1.75,1.75,1.75,1.75,1.75,1.75,1.75,1.75,1.75,1.75,1.75,1.75,1.75,1.75,1.75
; max_z_height: 16.00
; creality_uuid: 7fbb103a-ea43-4593-a50b-335b74c49384
; HEADER_BLOCK_END

; MINX = 149.00
; MINY = 149.00
; MINZ = 0.00
; MAXX = 201.00
; MAXY = 315.00
; MAXZ = 16.00

; THUMBNAIL_BLOCK_START

;
; THUMBNAIL_BLOCK_END

; THUMBNAIL_BLOCK_START

;
; THUMBNAIL_BLOCK_END

; external perimeters extrusion width = 0.42mm
; perimeters extrusion width = 0.45mm
; infill extrusion width = 0.45mm
; solid infill extrusion width = 0.42mm
; top infill extrusion width = 0.42mm
; first layer extrusion width = 0.50mm

; external perimeters extrusion width = 0.42mm
; perimeters extrusion width = 0.45mm
; infill extrusion width = 0.45mm
; solid infill extrusion width = 0.42mm
; top infill extrusion width = 0.42mm
; first layer extrusion width = 0.50mm

; EXECUTABLE_BLOCK_START
EXCLUDE_OBJECT_DEFINE NAME=knob.stl_id_0_copy_0 CENTER=175.002,175 POLYGON=[[175.084,149.003],[177.55,149.125],[180.074,149.5],[182.549,150.12],[184.952,150.979],[187.258,152.07],[189.447,153.382],[191.496,154.902],[193.387,156.615],[195.1,158.506],[196.62,160.555],[197.932,162.744],[199.023,165.05],[199.882,167.453],[200.502,169.928],[200.877,172.452],[201.002,175],[200.877,177.548],[200.502,180.072],[199.882,182.547],[199.023,184.95],[197.932,187.256],[196.62,189.445],[195.1,191.494],[193.387,193.385],[191.496,195.098],[189.447,196.618],[187.258,197.93],[184.952,199.021],[182.549,199.88],[180.074,200.5],[177.55,200.875],[175.002,201],[172.453,200.875],[169.929,200.5],[167.454,199.88],[165.052,199.021],[162.745,197.93],[160.557,196.618],[158.508,195.098],[156.617,193.385],[154.904,191.494],[153.384,189.445],[152.072,187.256],[150.981,184.95],[150.121,182.547],[149.501,180.072],[149.127,177.548],[149.002,175],[149.127,172.452],[149.501,169.928],[150.121,167.453],[150.981,165.05],[152.072,162.744],[153.384,160.555],[154.904,158.506],[156.617,156.615],[158.508,154.902],[160.557,153.382],[162.745,152.07],[165.052,150.979],[167.454,150.12],[169.929,149.5],[172.453,149.125],[174.919,149.003],[175.002,149],[175.084,149.003]]
M73 P0 R30
M106 S0
M106 P2 S0
;TYPE:Custom
M141 S35;set chamber_temperature
M140 S0
M104 S0 
START_PRINT EXTRUDER_TEMP=220 BED_TEMP=50
T14
M104 S220
M204 S2000
G1 Z3 F600
M83
G1 Y150 F12000
G1 X0 F12000
G1 Z0.2 F600
G1 X0 Y150 F6000
G1 E0.8 F300
G1 X0 Y0 E9 F4600
G1 X150 Y0 E9 F4600
G92 E0
G1 Z1 F600
G90
G21
M83 ; use relative distances for extrusion

G1 E-1 F2400
G1 Z.2 F30000
M106 S0
;LAYER_CHANGE
;Z:0.2
;HEIGHT:0.2
;BEFORE_LAYER_CHANGE
;0.2
G92 E0

;_SET_FAN_SPEED_CHANGING_LAYER
SET_VELOCITY_LIMIT ACCEL=2000 ACCEL_TO_DECEL=2000
SET_VELOCITY_LIMIT SQUARE_CORNER_VELOCITY=20
EXCLUDE_OBJECT_START NAME=knob.stl_id_0_copy_0
G1 X198.765 Y179.516 Z.6 F30000
G1 Z.2
G1 E1 F2400
;TYPE:Inner wall
;WIDTH:0.5
G1 F3600
G1 X199.575 Y179.748 E.03043
G1 X199.641 Y179.785 E.00273
G1 X199.68 Y179.936 E.00562
G1 X199.558 Y180.022 E.00538
G1 X198.657 Y179.919 E.03272
G1 X198.183 Y181.813 E.07049
G1 X198.992 Y182.134 E.03142
G3 X198.96 Y182.407 I-.077 J.13 E.01254
G1 X198.061 Y182.214 E.03321
G1 X197.404 Y184.052 E.07049
G1 X198.204 Y184.465 E.03252
G1 X198.261 Y184.586 E.00483
G1 X198.173 Y184.697 E.00512
G1 X198.087 Y184.71 E.00315
G1 X197.243 Y184.44 E.03198
G1 X196.408 Y186.205 E.07049
G1 X197.165 Y186.693 E.03252
G1 X197.209 Y186.819 E.00482
G1 X197.111 Y186.922 E.00512
G1 X197.024 Y186.926 E.00316
G1 X196.211 Y186.574 E.03198
G1 X195.207 Y188.249 E.07049
G1 X195.888 Y188.79 E.03141
G1 X195.935 Y188.85 E.00274
G1 X195.912 Y189.004 E.00562
G1 X195.767 Y189.037 E.00537
G1 X194.974 Y188.597 E.03272
G1 X193.811 Y190.165 E.07049
G1 X194.442 Y190.777 E.0317
G3 X194.302 Y191.012 I-.128 J.083 E.01225
G1 X193.545 Y190.489 E.0332
G1 X192.234 Y191.936 E.07049
G1 X192.816 Y192.623 E.03252
G1 X192.822 Y192.757 E.00482
G1 X192.699 Y192.826 E.00512
G1 X192.614 Y192.805 E.00316
G1 X191.938 Y192.232 E.03199
G1 X190.491 Y193.544 E.07049
G1 X191.003 Y194.285 E.03252
G1 X190.996 Y194.418 E.00482
G1 X190.866 Y194.475 E.00513
G1 X190.784 Y194.445 E.00316
G1 X190.167 Y193.809 E.03198
G1 X188.599 Y194.973 E.07049
G1 X189.021 Y195.733 E.03141
G1 X189.041 Y195.806 E.00274
G1 X188.961 Y195.94 E.00562
G1 X188.815 Y195.915 E.00538
G1 X188.25 Y195.205 E.03272
G1 X186.576 Y196.209 E.07049
G1 X186.936 Y197.042 E.03278
G1 X186.899 Y197.148 E.00404
G3 X186.681 Y197.142 I-.105 J-.153 E.00839
G1 X186.206 Y196.407 E.03162
G1 X184.441 Y197.241 E.07049
G1 X184.716 Y198.099 E.03252
G1 X184.67 Y198.225 E.00485
G1 X184.529 Y198.242 E.00515
G1 X184.459 Y198.189 E.00314
G1 X184.054 Y197.402 E.03196
G1 X182.216 Y198.06 E.07049
G1 X182.405 Y198.939 E.03249
G1 X182.349 Y199.06 E.00483
G1 X182.209 Y199.064 E.00505
G1 X182.142 Y199.007 E.00315
G1 X181.815 Y198.181 E.03209
G1 X179.921 Y198.656 E.07049
G1 X180.02 Y199.528 E.03169
G1 X180.002 Y199.607 E.00295
G1 X179.878 Y199.684 E.00525
G1 X179.759 Y199.608 E.00508
G1 X179.51 Y198.737 E.03271
G1 X177.578 Y199.024 E.07049
G1 X177.592 Y199.894 E.03142
G3 X177.327 Y199.969 I-.149 J-.021 E.01255
G1 X177.161 Y199.065 E.0332
G1 X175.212 Y199.161 E.07047
G1 X175.137 Y200.054 E.03236
G1 X175.052 Y200.159 E.0049
G1 X174.909 Y200.118 E.00534
G1 X174.865 Y200.043 E.00314
G1 X174.792 Y199.161 E.03197
G1 X172.842 Y199.065 E.07049
G1 X172.68 Y199.951 E.03252
G1 X172.581 Y200.04 E.00483
G1 X172.45 Y199.989 E.00508
G1 X172.411 Y199.911 E.00315
G1 X172.425 Y199.024 E.03203
G1 X170.494 Y198.737 E.07049
G1 X170.254 Y199.575 E.03145
G1 X170.216 Y199.64 E.00273
G1 X170.066 Y199.678 E.00557
G1 X169.98 Y199.556 E.00538
G1 X170.083 Y198.656 E.03272
G1 X168.189 Y198.181 E.07049
G1 X167.868 Y198.99 E.03141
G3 X167.595 Y198.959 I-.13 J-.076 E.01256
G1 X167.788 Y198.06 E.0332
G1 X165.949 Y197.402 E.07049
G1 X165.537 Y198.203 E.03252
G1 X165.415 Y198.26 E.00487
G1 X165.304 Y198.17 E.00517
G1 X165.292 Y198.084 E.00312
G1 X165.562 Y197.241 E.03195
G1 X163.797 Y196.407 E.07049
G1 X163.309 Y197.163 E.03252
G1 X163.183 Y197.208 E.00482
G1 X163.08 Y197.11 E.00512
G1 X163.076 Y197.022 E.00316
G1 X163.428 Y196.209 E.03198
G1 X161.753 Y195.205 E.07049
G1 X161.207 Y195.892 E.03169
G1 X161.138 Y195.935 E.00294
G1 X160.996 Y195.903 E.00524
G1 X160.965 Y195.765 E.00509
G1 X161.405 Y194.972 E.03272
G1 X159.836 Y193.809 E.07049
G1 X159.225 Y194.44 E.0317
G3 X158.993 Y194.296 I-.083 J-.126 E.01235
G1 X159.512 Y193.543 E.03301
G1 X158.066 Y192.232 E.07049
G1 X157.378 Y192.815 E.03252
G1 X157.245 Y192.82 E.00483
G1 X157.175 Y192.697 E.00512
G1 X157.197 Y192.612 E.00315
G1 X157.769 Y191.936 E.03198
G1 X156.458 Y190.489 E.07049
G1 X155.717 Y191.001 E.03252
G1 X155.584 Y190.994 E.00483
G1 X155.527 Y190.864 E.00512
G1 X155.556 Y190.782 E.00315
G1 X156.192 Y190.165 E.03199
G1 X155.029 Y188.597 E.07049
G1 X154.262 Y189.023 E.03169
G1 X154.181 Y189.036 E.00295
G1 X154.064 Y188.952 E.00523
G1 X154.087 Y188.813 E.00508
G1 X154.796 Y188.249 E.03273
G1 X153.793 Y186.574 E.07049
G1 X152.96 Y186.934 E.03277
G1 X152.854 Y186.897 E.00404
G3 X152.86 Y186.679 I.156 J-.105 E.0084
G1 X153.595 Y186.204 E.0316
G1 X152.76 Y184.439 E.07049
G1 X151.903 Y184.714 E.03252
G1 X151.777 Y184.669 E.00482
G1 X151.76 Y184.528 E.00512
G1 X151.812 Y184.458 E.00316
G1 X152.6 Y184.052 E.03199
G1 X151.942 Y182.214 E.07049
G1 X151.062 Y182.403 E.03252
G1 X150.943 Y182.347 E.00474
G1 X150.937 Y182.208 E.005
G1 X150.995 Y182.14 E.00322
G1 X151.821 Y181.813 E.03208
G1 X151.346 Y179.919 E.07049
G1 X150.474 Y180.019 E.03169
G1 X150.395 Y180 E.00295
G1 X150.318 Y179.877 E.00524
G1 X150.393 Y179.758 E.00508
G1 X151.264 Y179.508 E.03272
G1 X150.978 Y177.577 E.07049
G1 X150.1 Y177.59 E.0317
G3 X150.032 Y177.325 I.032 J-.149 E.01225
G1 X150.937 Y177.16 E.03321
G1 X150.841 Y175.21 E.07049
G1 X149.943 Y175.135 E.03252
G1 X149.844 Y175.045 E.00485
G1 X149.884 Y174.908 E.00515
G1 X149.959 Y174.864 E.00314
G1 X150.841 Y174.79 E.03197
G1 X150.937 Y172.84 E.07049
G1 X150.051 Y172.678 E.03252
G1 X149.962 Y172.579 E.00483
G1 X150.013 Y172.448 E.00508
G1 X150.091 Y172.41 E.00315
G1 X150.978 Y172.423 E.03203
G1 X151.264 Y170.492 E.07049
G1 X150.428 Y170.252 E.03143
G1 X150.362 Y170.215 E.00274
G1 X150.324 Y170.064 E.0056
G1 X150.446 Y169.978 E.00537
G1 X151.346 Y170.081 E.03272
G1 X151.821 Y168.187 E.07049
G1 X151.012 Y167.866 E.03142
G3 X151.043 Y167.593 I.077 J-.13 E.01254
G1 X151.942 Y167.786 E.0332
G1 X152.6 Y165.948 E.07049
G1 X151.799 Y165.535 E.03252
G1 X151.742 Y165.413 E.00486
G1 X151.832 Y165.302 E.00517
G1 X151.918 Y165.291 E.00312
G1 X152.76 Y165.56 E.03195
G1 X153.595 Y163.795 E.07049
G1 X152.839 Y163.307 E.03252
G1 X152.794 Y163.181 E.00482
G1 X152.892 Y163.078 E.00513
G1 X152.98 Y163.074 E.00316
G1 X153.793 Y163.426 E.03198
G1 X154.797 Y161.751 E.07049
G1 X154.115 Y161.21 E.03141
G1 X154.069 Y161.15 E.00275
G1 X154.092 Y160.996 E.00561
G1 X154.237 Y160.963 E.00536
G1 X155.029 Y161.403 E.03272
G1 X156.192 Y159.835 E.07048
G1 X155.568 Y159.229 E.03141
G3 X155.702 Y158.988 I.12 J-.091 E.01256
G1 X156.458 Y159.511 E.03321
G1 X157.769 Y158.064 E.07049
G1 X157.187 Y157.377 E.03252
G1 X157.181 Y157.243 E.00483
G1 X157.305 Y157.174 E.00512
G1 X157.39 Y157.195 E.00315
G1 X158.066 Y157.768 E.03198
G1 X159.512 Y156.456 E.07049
G1 X159 Y155.715 E.03252
G1 X159.008 Y155.582 E.00483
G1 X159.138 Y155.525 E.00513
G1 X159.22 Y155.555 E.00316
G1 X159.836 Y156.191 E.03198
G1 X161.405 Y155.027 E.07049
G1 X160.983 Y154.267 E.03142
G1 X160.962 Y154.194 E.00273
G1 X161.042 Y154.06 E.00562
G1 X161.189 Y154.085 E.00538
G1 X161.753 Y154.795 E.03272
G1 X163.428 Y153.791 E.07049
G1 X163.067 Y152.958 E.03278
G1 X163.105 Y152.852 E.00404
G3 X163.322 Y152.858 I.105 J.153 E.00839
G1 X163.797 Y153.593 E.03162
G1 X165.562 Y152.759 E.07049
G1 X165.288 Y151.901 E.03252
G1 X165.333 Y151.775 E.00485
G1 X165.475 Y151.758 E.00515
G1 X165.544 Y151.811 E.00314
G1 X165.95 Y152.598 E.03196
G1 X167.788 Y151.94 E.07049
G1 X167.598 Y151.06 E.03252
G1 X167.656 Y150.939 E.00482
G1 X167.795 Y150.936 E.00501
G1 X167.861 Y150.993 E.00315
G1 X168.189 Y151.819 E.03209
G1 X170.083 Y151.344 E.07049
G1 X169.983 Y150.472 E.03169
G1 X170.002 Y150.393 E.00296
G1 X170.125 Y150.316 E.00525
G1 X170.244 Y150.392 E.00508
G1 X170.494 Y151.263 E.03271
G1 X172.425 Y150.976 E.07049
G1 X172.412 Y150.099 E.03169
G3 X172.678 Y150.036 I.148 J.03 E.01236
G1 X172.842 Y150.935 E.03301
G1 X174.792 Y150.839 E.07047
G1 X174.866 Y149.946 E.03235
G3 X175.094 Y149.892 I.136 J.066 E.00969
G3 X175.139 Y149.971 I-.092 J.104 E.00335
G1 X175.211 Y150.839 E.03145
G1 X177.161 Y150.935 E.07049
G1 X177.323 Y150.049 E.03251
G1 X177.423 Y149.96 E.00483
G1 X177.555 Y150.011 E.00513
G1 X177.592 Y150.09 E.00316
G1 X177.579 Y150.976 E.03199
G1 X179.51 Y151.263 E.07049
G1 X179.752 Y150.419 E.03169
G1 X179.799 Y150.353 E.00294
G1 X179.942 Y150.329 E.00523
G1 X180.024 Y150.444 E.00509
G1 X179.921 Y151.344 E.03273
G1 X181.814 Y151.819 E.07046
G1 X182.133 Y151.015 E.03123
G3 X182.409 Y151.041 I.132 J.071 E.01274
G1 X182.216 Y151.941 E.03321
G1 X184.054 Y152.598 E.07049
G1 X184.466 Y151.797 E.03252
G1 X184.588 Y151.741 E.00483
G1 X184.699 Y151.828 E.00512
G1 X184.711 Y151.915 E.00315
G1 X184.441 Y152.759 E.03198
G1 X186.206 Y153.593 E.07048
G1 X186.694 Y152.838 E.03246
G1 X186.82 Y152.791 E.00484
G1 X186.924 Y152.89 E.0052
G1 X186.927 Y152.978 E.00316
G1 X186.576 Y153.791 E.03198
G1 X188.251 Y154.795 E.07049
G1 X188.797 Y154.108 E.03169
G1 X188.866 Y154.065 E.00295
G1 X189.007 Y154.098 E.00523
G1 X189.039 Y154.235 E.00509
G1 X188.599 Y155.028 E.03273
G1 X190.167 Y156.19 E.07048
G1 X190.773 Y155.566 E.03141
G3 X191.011 Y155.704 I.09 J.119 E.01264
G1 X190.491 Y156.457 E.03301
G1 X191.938 Y157.768 E.07049
G1 X192.625 Y157.185 E.03252
G1 X192.759 Y157.18 E.00482
G1 X192.828 Y157.303 E.00512
G1 X192.807 Y157.388 E.00316
G1 X192.234 Y158.064 E.03198
G1 X193.545 Y159.511 E.07049
G1 X194.287 Y158.999 E.03252
G1 X194.42 Y159.006 E.00482
G1 X194.477 Y159.136 E.00512
G1 X194.447 Y159.218 E.00316
G1 X193.811 Y159.835 E.03198
G1 X194.974 Y161.403 E.07049
G1 X195.742 Y160.977 E.0317
G1 X195.823 Y160.964 E.00294
G1 X195.94 Y161.048 E.00522
G1 X195.917 Y161.187 E.00509
G1 X195.207 Y161.751 E.03272
G1 X196.211 Y163.426 E.07049
G1 X197.044 Y163.066 E.03278
G1 X197.15 Y163.103 E.00405
G3 X197.143 Y163.321 I-.156 J.104 E.00839
G1 X196.408 Y163.796 E.03159
G1 X197.243 Y165.561 E.07049
G1 X198.101 Y165.286 E.03252
G1 X198.227 Y165.331 E.00482
G1 X198.244 Y165.472 E.00512
G1 X198.191 Y165.542 E.00316
G1 X197.404 Y165.948 E.03199
G1 X198.061 Y167.786 E.07049
G1 X198.942 Y167.597 E.03252
G1 X199.062 Y167.654 E.00482
G1 X199.066 Y167.793 E.00501
G1 X199.009 Y167.86 E.00315
G1 X198.183 Y168.187 E.03209
G1 X198.657 Y170.081 E.07049
G1 X199.529 Y169.981 E.03169
G1 X199.609 Y170 E.00294
G1 X199.685 Y170.123 E.00524
G1 X199.61 Y170.242 E.00509
G1 X198.739 Y170.492 E.03272
G1 X199.026 Y172.423 E.07049
G1 X199.906 Y172.41 E.03179
G3 X200.033 Y172.563 I-.044 J.165 E.00766
G1 X199.971 Y172.675 E.00461
G1 X199.067 Y172.84 E.0332
G1 X199.163 Y174.79 E.07049
G1 X200.06 Y174.865 E.03252
G1 X200.159 Y174.955 E.00485
G1 X200.12 Y175.093 E.00516
G1 X200.045 Y175.136 E.00314
G1 X199.163 Y175.21 E.03197
G1 X199.067 Y177.16 E.07049
G1 X199.953 Y177.322 E.03252
G1 X200.042 Y177.421 E.00482
G1 X199.991 Y177.552 E.00507
G1 X199.913 Y177.59 E.00315
G1 X199.026 Y177.577 E.03204
G1 X198.741 Y179.495 E.07003
G1 X199.25 Y179.179 F30000
;TYPE:Outer wall
G1 F3600
G1 X199.733 Y179.317 E.01815
G3 X199.503 Y180.476 I-.214 J.559 E.06062
G1 X199.003 Y180.419 E.01815
G1 X198.724 Y181.536 E.04157
G1 X199.191 Y181.721 E.01815
G3 X198.848 Y182.851 I-.268 J.536 E.06062
G1 X198.357 Y182.745 E.01816
G1 X197.969 Y183.829 E.04157
G1 X198.416 Y184.059 E.01816
G3 X197.964 Y185.15 I-.319 J.507 E.06062
G1 X197.485 Y184.997 E.01815
G1 X196.993 Y186.038 E.04157
G1 X197.415 Y186.311 E.01816
G3 X196.859 Y187.352 I-.367 J.473 E.06062
G1 X196.397 Y187.153 E.01815
G1 X195.805 Y188.14 E.04157
G1 X196.199 Y188.453 E.01815
G3 X195.543 Y189.435 I-.412 J.435 E.06062
G1 X195.103 Y189.191 E.01816
G1 X194.417 Y190.116 E.04157
G1 X194.778 Y190.466 E.01816
G3 X194.029 Y191.379 I-.453 J.392 E.06062
G1 X193.615 Y191.093 E.01815
G1 X192.842 Y191.946 E.04157
G1 X193.167 Y192.33 E.01816
G3 X192.332 Y193.165 I-.489 J.346 E.06062
G1 X191.948 Y192.84 E.01815
G1 X191.095 Y193.613 E.04157
G1 X191.381 Y194.027 E.01816
G3 X190.468 Y194.776 I-.52 J.296 E.06062
G1 X190.118 Y194.415 E.01815
G1 X189.193 Y195.101 E.04157
G1 X189.437 Y195.541 E.01815
G3 X188.455 Y196.197 I-.547 J.244 E.06062
G1 X188.142 Y195.803 E.01816
G1 X187.154 Y196.395 E.04157
G1 X187.354 Y196.857 E.01816
G3 X186.313 Y197.413 I-.568 J.189 E.06061
G1 X186.04 Y196.991 E.01816
G1 X184.999 Y197.483 E.04157
G1 X185.152 Y197.962 E.01816
G3 X184.061 Y198.414 I-.584 J.133 E.06062
G1 X183.831 Y197.967 E.01815
G1 X182.747 Y198.355 E.04157
G1 X182.853 Y198.846 E.01815
G3 X181.723 Y199.189 I-.594 J.075 E.06062
G1 X181.537 Y198.722 E.01816
G1 X180.42 Y199.002 E.04157
G1 X180.477 Y199.501 E.01816
G3 X179.319 Y199.732 I-.599 J.016 E.06062
G1 X179.181 Y199.248 E.01815
G1 X178.042 Y199.417 E.04157
G1 X178.049 Y199.92 E.01815
G3 X176.874 Y200.036 I-.597 J-.043 E.06062
G1 X176.784 Y199.541 E.01815
G1 X175.634 Y199.598 E.04156
G1 X175.592 Y200.098 E.01815
G3 X174.411 Y200.099 I-.59 J-.101 E.06062
G1 X174.37 Y199.598 E.01815
G1 X173.22 Y199.541 E.04157
G1 X173.129 Y200.036 E.01816
G3 X171.954 Y199.92 I-.578 J-.158 E.06062
G1 X171.962 Y199.417 E.01815
G1 X170.823 Y199.248 E.04157
G1 X170.684 Y199.732 E.01815
G3 X169.526 Y199.501 I-.559 J-.214 E.06062
G1 X169.583 Y199.002 E.01815
G1 X168.466 Y198.722 E.04157
G1 X168.281 Y199.189 E.01815
G3 X167.151 Y198.847 I-.536 J-.268 E.06062
G1 X167.257 Y198.355 E.01815
G1 X166.173 Y197.967 E.04157
G1 X165.942 Y198.414 E.01816
G3 X164.851 Y197.962 I-.507 J-.319 E.06062
G1 X165.005 Y197.483 E.01815
